src/rounded/icons/fi-rr-band-aid.svg

<svg id="Layer_1" height="512" viewBox="0 0 24 24" width="512" xmlns="http://www.w3.org/2000/svg" data-name="Layer 1"><path d="m9 10a1 1 0 1 1 1 1 1 1 0 0 1 -1-1zm5 1a1 1 0 1 0 -1-1 1 1 0 0 0 1 1zm-4 2a1 1 0 1 0 1 1 1 1 0 0 0 -1-1zm4 2a1 1 0 1 0 -1-1 1 1 0 0 0 1 1zm10-5v4a5.006 5.006 0 0 1 -5 5h-14a5.006 5.006 0 0 1 -5-5v-4a5.006 5.006 0 0 1 5-5h14a5.006 5.006 0 0 1 5 5zm-17-3v10h10v-10zm-2 10v-10a3 3 0 0 0 -3 3v4a3 3 0 0 0 3 3zm17-7a3 3 0 0 0 -3-3v10a3 3 0 0 0 3-3z"/></svg>

<svg id="Layer_1" data-name="Layer 1" xmlns="http://www.w3.org/2000/svg" viewBox="0 0 24 24"><path d="M9,10a1,1,0,1,1,1,1A1,1,0,0,1,9,10Zm5,1a1,1,0,1,0-1-1A1,1,0,0,0,14,11Zm-4,2a1,1,0,1,0,1,1A1,1,0,0,0,10,13Zm4,2a1,1,0,1,0-1-1A1,1,0,0,0,14,15Zm10-5v4a5.006,5.006,0,0,1-5,5H5a5.006,5.006,0,0,1-5-5V10A5.006,5.006,0,0,1,5,5H19A5.006,5.006,0,0,1,24,10ZM7,7V17H17V7ZM5,17V7a3,3,0,0,0-3,3v4A3,3,0,0,0,5,17Zm17-7a3,3,0,0,0-3-3V17a3,3,0,0,0,3-3Z"/></svg>
